!! 00000] TT[WS
!!!OTL: Shandan huakai
!!!ARE: Asia, China, Shanxi Lishan
!! Ethnic Group: Han
!! WI, 254
!!!SCT: J0301
!!!YEM: Copyright 1995, estate of Helmut Schaffrath.
**kern
*ICvox
*Ivox
*M2/4
*k[f#]
*G:
{8dd
8b
4dd
=1
8b
4dd
8gg
=2
8ee
8dd
8e
8g
=3
8a
8b
8dd
8b}
=4
{8.dd
16gg
8ee
8b
=5
8a
8dd
8a
8g
=6
8e
4d
8g
=7
8a
8dd
8.a
16b
=8
2a}
=9
{8a
8b
4dd
=10
8gg
8ee
4dd
=11
8b
16a
16b
4dd
=12
8.g
16b
16a
16b
16a
16b
=13
4.d
8e}
=14
{8.g
16e
8.g
16e
=15
4.g
8a
=16
16b
16b
16b
16b
8a
16b
16a
=17
8.g
16e
8d
16e
16g
=18
2d}
==
!!!AGN: Xiaodiao, Chundiao. XÅshi, Sichun
!!!ONB: ESAC (Essen Associative Code) Database: CHINA
!!!AMT: simple duple
!!!AIN: vox
!!!EED: Helmut Schaffrath
!!!EEV: 1.0
*-
